static/images/social/telegram.svg

<?xml version="1.0" encoding="UTF-8"?>
<svg width="24px" height="24px" viewBox="0 0 24 24" version="1.1" xmlns="http://www.w3.org/2000/svg" xmlns:xlink="http://www.w3.org/1999/xlink">
    <title>编组 9</title>
    <g id="页面-1" stroke="none" stroke-width="1" fill="none" fill-rule="evenodd">
        <g id="编组-9" fill-rule="nonzero">
            <g id="编组-5">
                <circle id="椭圆形" fill="#010201" cx="12" cy="12" r="12"></circle>
                <path d="M17.8417778,7.12533333 C17.82252,7.0310968 17.7549244,6.95403776 17.664,6.92266667 C17.4955587,6.88905337 17.321179,6.90133364 17.1591111,6.95822222 C17.1591111,6.95822222 5.93777778,10.9848889 5.30488889,11.4364444 C5.168,11.5324444 5.12711111,11.5875556 5.09866667,11.6533333 C4.98666667,11.9715556 5.33333333,12.112 5.33333333,12.112 L8.224,13.0524444 C8.27189041,13.064127 8.32188736,13.064127 8.36977778,13.0524444 C9.02755556,12.6382222 14.9848889,8.87466667 15.3297778,8.74844444 C15.3831111,8.73244444 15.424,8.74844444 15.4133333,8.78933333 C15.2746667,9.27111111 10.0995556,13.872 10.0995556,13.872 C10.0864795,13.8882164 10.0757107,13.9061644 10.0675556,13.9253333 L10.0675556,13.9253333 L9.79911111,16.7928889 C9.79911111,16.7928889 9.68533333,17.6711111 10.5635556,16.7928889 C11.184,16.1742222 11.7831111,15.6551111 12.0835556,15.4026667 C13.0773333,16.0888889 14.1475556,16.848 14.608,17.2444444 C14.7646708,17.3964221 14.9765311,17.4779562 15.1946667,17.4702222 C15.632,17.4542222 15.7546667,16.9724444 15.7546667,16.9724444 C15.7546667,16.9724444 17.7991111,8.74844444 17.8666667,7.64622222 C17.8666667,7.53777778 17.8826822,7.46844444 17.8826822,7.39377778 C17.883212,7.30270477 17.8694134,7.21211389 17.8417778,7.12533333 Z" id="路径" fill="#FFFFFF"></path>
            </g>
        </g>
    </g>
</svg>

<svg xmlns="http://www.w3.org/2000/svg" width="24" height="24" viewBox="0 0 24 24"><title>telegram</title><g fill="none" fill-rule="nonzero"><circle cx="12" cy="12" r="12" fill="#444"/><path fill="#DEDEDE" d="M17.842 7.125a.272.272 0 0 0-.178-.202.958.958 0 0 0-.505.035S5.938 10.985 5.305 11.436c-.137.096-.178.152-.206.217-.112.319.234.459.234.459l2.891.94a.308.308 0 0 0 .146 0c.658-.414 6.615-4.177 6.96-4.304.053-.016.094 0 .083.041-.138.482-5.313 5.083-5.313 5.083a.226.226 0 0 0-.032.053l-.269 2.868s-.114.878.765 0c.62-.619 1.22-1.138 1.52-1.39.993.686 2.064 1.445 2.524 1.841a.802.802 0 0 0 .587.226c.437-.016.56-.498.56-.498s2.044-8.224 2.112-9.326c0-.108.016-.178.016-.252a.868.868 0 0 0-.041-.269Z"/></g></svg>
